copytrade/img/icomoon/video.svg

<svg width="49" height="48" viewBox="0 0 49 48" fill="none" xmlns="http://www.w3.org/2000/svg">
<path fill-rule="evenodd" clip-rule="evenodd" d="M5.5 16C5.5 12.134 8.63401 9 12.5 9H26.5C30.366 9 33.5 12.134 33.5 16V32C33.5 35.866 30.366 39 26.5 39H12.5C8.63401 39 5.5 35.866 5.5 32V16ZM12.5 11C9.73858 11 7.5 13.2386 7.5 16V32C7.5 34.7614 9.73858 37 12.5 37H26.5C29.2614 37 31.5 34.7614 31.5 32V16C31.5 13.2386 29.2614 11 26.5 11H12.5Z" fill="#0065FF"/>
<path fill-rule="evenodd" clip-rule="evenodd" d="M38.4931 14.2608C40.4237 12.5233 43.5 13.8934 43.5 16.4907V31.5093C43.5 34.1066 40.4237 35.4767 38.4931 33.7392L32.4931 28.3392C31.861 27.7702 31.5 26.9597 31.5 26.1093V21.8907C31.5 21.0403 31.861 20.2298 32.4931 19.6608L38.4931 14.2608ZM41.5 16.4907C41.5 15.625 40.4746 15.1683 39.831 15.7474L33.831 21.1474C33.6203 21.3371 33.5 21.6072 33.5 21.8907V26.1093C33.5 26.3928 33.6203 26.6629 33.831 26.8526L39.831 32.2526C40.4746 32.8317 41.5 32.375 41.5 31.5093V16.4907Z" fill="#0065FF"/>
</svg>

<svg width="49" height="48" fill="none" xmlns="http://www.w3.org/2000/svg"><path fill-rule="evenodd" clip-rule="evenodd" d="M5.5 16a7 7 0 017-7h14a7 7 0 017 7v16a7 7 0 01-7 7h-14a7 7 0 01-7-7V16zm7-5a5 5 0 00-5 5v16a5 5 0 005 5h14a5 5 0 005-5V16a5 5 0 00-5-5h-14z" fill="#0065FF"/><path fill-rule="evenodd" clip-rule="evenodd" d="M38.493 14.26c1.93-1.737 5.007-.367 5.007 2.23v15.02c0 2.597-3.076 3.967-5.007 2.23l-6-5.4a3 3 0 01-.993-2.23v-4.22a3 3 0 01.993-2.23l6-5.4zm3.007 2.23c0-.865-1.025-1.322-1.669-.743l-6 5.4a1 1 0 00-.331.744v4.218a1 1 0 00.331.744l6 5.4c.644.579 1.669.122 1.669-.744V16.491z" fill="#0065FF"/></svg>
